GamePadViewer/DS4/Purple-Green/assets/dpad.svg

<svg id="Layer_1" data-name="Layer 1" xmlns="http://www.w3.org/2000/svg" width="178.53" height="103.93" viewBox="0 0 178.53 103.93">
  <defs>
    <style>
      .cls-1 {
        fill: #1a1a1a;
      }

      .cls-2, .cls-4 {
        isolation: isolate;
        opacity: 0.25;
      }

      .cls-3 {
        fill: #e6e6e6;
      }

      .cls-4 {
        fill: #fff;
      }
    </style>
  </defs>
  <g>
    <g>
      <path class="cls-1" d="M124.5,20.6c1.4-2,1.2-2.9,1.2-2.9s.2-.9-1.2-2.9-15-13.6-15.7-14S80.3-1.4,77.4,2.1s-2.6,15.6-2.6,15.6-.3,12.1,2.6,15.6,30.7,1.7,31.4,1.3S123.1,22.6,124.5,20.6Z" transform="translate(0.02 0.02)"/>
      <path class="cls-2" d="M124.5,20.6c1.4-2,1.2-2.9,1.2-2.9s.2-.9-1.2-2.9c-.9-1.3-6.9-6.6-11.2-10.3a27.84,27.84,0,0,0-3.4,13.2,26.73,26.73,0,0,0,3.4,13.2C117.6,27.2,123.6,21.9,124.5,20.6Z" transform="translate(0.02 0.02)"/>
    </g>
    <g>
      <path class="cls-1" d="M52.2,49.7c2,1.4,2.9,1.2,2.9,1.2s.9.2,2.9-1.2S71.6,34.7,72,34,74.2,5.5,70.7,2.6,55.1,0,55.1,0,43-.2,39.5,2.6,37.8,33.3,38.2,34,50.2,48.3,52.2,49.7Z" transform="translate(0.02 0.02)"/>
      <path class="cls-2" d="M52.2,49.7c2,1.4,2.9,1.2,2.9,1.2s.9.2,2.9-1.2c1.3-.9,6.6-6.9,10.3-11.2a27.84,27.84,0,0,0-13.2-3.4,26.73,26.73,0,0,0-13.2,3.4C45.6,42.8,50.9,48.8,52.2,49.7Z" transform="translate(0.02 0.02)"/>
    </g>
    <g>
      <path class="cls-1" d="M175.9,2.2C173-1.3,145.2.5,144.5.9s-14.3,12-15.7,14-1.2,2.9-1.2,2.9-.2.9,1.2,2.9,15,13.6,15.7,14,28.5,2.2,31.4-1.3,2.6-15.6,2.6-15.6S178.8,5.7,175.9,2.2Z" transform="translate(0.02 0.02)"/>
      <path class="cls-2" d="M140.1,4.6c-4.3,3.7-10.3,9-11.2,10.3-1.4,2-1.2,2.9-1.2,2.9s-.2.9,1.2,2.9c.9,1.3,6.9,6.6,11.2,10.3a27.84,27.84,0,0,0,3.4-13.2A27.84,27.84,0,0,0,140.1,4.6Z" transform="translate(0.02 0.02)"/>
    </g>
    <g>
      <path class="cls-1" d="M20.6,1.2C18.6-.2,17.7,0,17.7,0s-.9-.2-2.9,1.2S1.2,16.2.8,16.9-1.4,45.4,2.1,48.3s15.6,2.6,15.6,2.6,12.1.3,15.6-2.6S35,17.6,34.6,16.9,22.6,2.6,20.6,1.2Z" transform="translate(0.02 0.02)"/>
      <path class="cls-2" d="M20.6,1.2C18.6-.2,17.7,0,17.7,0s-.9-.2-2.9,1.2c-1.3.9-6.6,6.9-10.3,11.2a27.84,27.84,0,0,0,13.2,3.4,26.73,26.73,0,0,0,13.2-3.4C27.2,8.1,21.9,2.1,20.6,1.2Z" transform="translate(0.02 0.02)"/>
    </g>
  </g>
  <g>
    <g>
      <path class="cls-3" d="M124.5,73.6c1.4-2,1.2-2.9,1.2-2.9s.2-.9-1.2-2.9-15-13.6-15.7-14-28.5-2.2-31.4,1.3-2.6,15.6-2.6,15.6-.3,12.1,2.6,15.6,30.7,1.7,31.4,1.3S123.1,75.6,124.5,73.6Z" transform="translate(0.02 0.02)"/>
      <path class="cls-4" d="M124.5,73.6c1.4-2,1.2-2.9,1.2-2.9s.2-.9-1.2-2.9c-.9-1.3-6.9-6.6-11.2-10.3a27.84,27.84,0,0,0-3.4,13.2,26.73,26.73,0,0,0,3.4,13.2C117.6,80.2,123.6,74.9,124.5,73.6Z" transform="translate(0.02 0.02)"/>
    </g>
    <g>
      <path class="cls-3" d="M52.2,102.7c2,1.4,2.9,1.2,2.9,1.2s.9.2,2.9-1.2S71.6,87.7,72,87s2.2-28.5-1.3-31.4S55.1,53,55.1,53,43,52.8,39.5,55.6,37.8,86.3,38.2,87,50.2,101.3,52.2,102.7Z" transform="translate(0.02 0.02)"/>
      <path class="cls-4" d="M52.2,102.7c2,1.4,2.9,1.2,2.9,1.2s.9.2,2.9-1.2c1.3-.9,6.6-6.9,10.3-11.2a27.84,27.84,0,0,0-13.2-3.4,26.73,26.73,0,0,0-13.2,3.4C45.6,95.8,50.9,101.8,52.2,102.7Z" transform="translate(0.02 0.02)"/>
    </g>
    <g>
      <path class="cls-3" d="M175.9,55.1c-2.9-3.5-30.7-1.7-31.4-1.3s-14.3,12-15.7,14-1.2,2.9-1.2,2.9-.2.9,1.2,2.9,15,13.6,15.7,14,28.5,2.2,31.4-1.3,2.6-15.6,2.6-15.6S178.8,58.6,175.9,55.1Z" transform="translate(0.02 0.02)"/>
      <path class="cls-4" d="M140.1,57.6c-4.3,3.7-10.3,9-11.2,10.3-1.4,2-1.2,2.9-1.2,2.9s-.2.9,1.2,2.9c.9,1.3,6.9,6.6,11.2,10.3a27.32,27.32,0,0,0,0-26.4Z" transform="translate(0.02 0.02)"/>
    </g>
    <g>
      <path class="cls-3" d="M20.6,54.2c-2-1.4-2.9-1.2-2.9-1.2s-.9-.2-2.9,1.2S1.2,69.2.8,69.9s-2.2,28.5,1.3,31.4,15.6,2.6,15.6,2.6,12.1.3,15.6-2.6S35,70.6,34.6,69.9,22.6,55.6,20.6,54.2Z" transform="translate(0.02 0.02)"/>
      <path class="cls-4" d="M20.6,54.2c-2-1.4-2.9-1.2-2.9-1.2s-.9-.2-2.9,1.2c-1.3.9-6.6,6.9-10.3,11.2a27.84,27.84,0,0,0,13.2,3.4,26.73,26.73,0,0,0,13.2-3.4C27.2,61.1,21.9,55.1,20.6,54.2Z" transform="translate(0.02 0.02)"/>
    </g>
  </g>
</svg>

<svg id="Layer_1" data-name="Layer 1" xmlns="http://www.w3.org/2000/svg" width="178.53" height="103.93" viewBox="0 0 178.53 103.93">
    <g>
        <g>
            <g transform="matrix(1,0,0,1,0.02,0.02)">
                <path d="M124.5,20.6C125.9,18.6 125.7,17.7 125.7,17.7C125.7,17.7 125.9,16.8 124.5,14.8C123.1,12.8 109.5,1.2 108.8,0.8C108.1,0.4 80.3,-1.4 77.4,2.1C74.5,5.6 74.8,17.7 74.8,17.7C74.8,17.7 74.5,29.8 77.4,33.3C80.3,36.8 108.1,35 108.8,34.6C109.5,34.2 123.1,22.6 124.5,20.6Z" style="fill:rgb(2,149,10);fill-rule:nonzero;"/>
            </g>
            <g transform="matrix(1,0,0,1,0.02,0.02)">
                <path d="M124.5,20.6C125.9,18.6 125.7,17.7 125.7,17.7C125.7,17.7 125.9,16.8 124.5,14.8C123.6,13.5 117.6,8.2 113.3,4.5C111.091,8.55 109.922,13.087 109.9,17.7C109.874,22.32 111.045,26.868 113.3,30.9C117.6,27.2 123.6,21.9 124.5,20.6Z" style="fill:rgb(0,113,6);fill-rule:nonzero;"/>
            </g>
        </g>
        <g>
            <g transform="matrix(1,0,0,1,0.02,0.02)">
                <path d="M52.2,49.7C54.2,51.1 55.1,50.9 55.1,50.9C55.1,50.9 56,51.1 58,49.7C60,48.3 71.6,34.7 72,34C72.4,33.3 74.2,5.5 70.7,2.6C67.2,-0.3 55.1,0 55.1,0C55.1,0 43,-0.2 39.5,2.6C36,5.4 37.8,33.3 38.2,34C38.6,34.7 50.2,48.3 52.2,49.7Z" style="fill:rgb(2,149,10);fill-rule:nonzero;"/>
            </g>
            <g transform="matrix(1,0,0,1,0.02,0.02)">
                <path d="M52.2,49.7C54.2,51.1 55.1,50.9 55.1,50.9C55.1,50.9 56,51.1 58,49.7C59.3,48.8 64.6,42.8 68.3,38.5C64.25,36.291 59.713,35.122 55.1,35.1C50.48,35.074 45.932,36.245 41.9,38.5C45.6,42.8 50.9,48.8 52.2,49.7Z" style="fill:rgb(0,113,6);fill-rule:nonzero;"/>
            </g>
        </g>
        <g>
            <g transform="matrix(1,0,0,1,0.02,0.02)">
                <path d="M175.9,2.2C173,-1.3 145.2,0.5 144.5,0.9C143.8,1.3 130.2,12.9 128.8,14.9C127.4,16.9 127.6,17.8 127.6,17.8C127.6,17.8 127.4,18.7 128.8,20.7C130.2,22.7 143.8,34.3 144.5,34.7C145.2,35.1 173,36.9 175.9,33.4C178.8,29.9 178.5,17.8 178.5,17.8C178.5,17.8 178.8,5.7 175.9,2.2Z" style="fill:rgb(2,149,10);fill-rule:nonzero;"/>
            </g>
            <g transform="matrix(1,0,0,1,0.02,0.02)">
                <path d="M140.1,4.6C135.8,8.3 129.8,13.6 128.9,14.9C127.5,16.9 127.7,17.8 127.7,17.8C127.7,17.8 127.5,18.7 128.9,20.7C129.8,22 135.8,27.3 140.1,31C142.309,26.95 143.478,22.413 143.5,17.8C143.478,13.187 142.309,8.65 140.1,4.6Z" style="fill:rgb(0,113,6);fill-rule:nonzero;"/>
            </g>
        </g>
        <g>
            <g transform="matrix(1,0,0,1,0.02,0.02)">
                <path d="M20.6,1.2C18.6,-0.2 17.7,0 17.7,0C17.7,0 16.8,-0.2 14.8,1.2C12.8,2.6 1.2,16.2 0.8,16.9C0.4,17.6 -1.4,45.4 2.1,48.3C5.6,51.2 17.7,50.9 17.7,50.9C17.7,50.9 29.8,51.2 33.3,48.3C36.8,45.4 35,17.6 34.6,16.9C34.2,16.2 22.6,2.6 20.6,1.2Z" style="fill:rgb(2,149,10);fill-rule:nonzero;"/>
            </g>
            <g transform="matrix(1,0,0,1,0.02,0.02)">
                <path d="M20.6,1.2C18.6,-0.2 17.7,0 17.7,0C17.7,0 16.8,-0.2 14.8,1.2C13.5,2.1 8.2,8.1 4.5,12.4C8.55,14.609 13.087,15.778 17.7,15.8C22.32,15.826 26.868,14.655 30.9,12.4C27.2,8.1 21.9,2.1 20.6,1.2Z" style="fill:rgb(0,113,6);fill-rule:nonzero;"/>
            </g>
        </g>
    </g>
    <g>
        <g>
            <g transform="matrix(1,0,0,1,0.02,0.02)">
                <path d="M124.5,73.6C125.9,71.6 125.7,70.7 125.7,70.7C125.7,70.7 125.9,69.8 124.5,67.8C123.1,65.8 109.5,54.2 108.8,53.8C108.1,53.4 80.3,51.6 77.4,55.1C74.5,58.6 74.8,70.7 74.8,70.7C74.8,70.7 74.5,82.8 77.4,86.3C80.3,89.8 108.1,88 108.8,87.6C109.5,87.2 123.1,75.6 124.5,73.6Z" style="fill:rgb(57,0,113);fill-rule:nonzero;"/>
            </g>
            <g transform="matrix(1,0,0,1,0.02,0.02)">
                <path d="M124.5,73.6C125.9,71.6 125.7,70.7 125.7,70.7C125.7,70.7 125.9,69.8 124.5,67.8C123.6,66.5 117.6,61.2 113.3,57.5C111.091,61.55 109.922,66.087 109.9,70.7C109.874,75.32 111.045,79.868 113.3,83.9C117.6,80.2 123.6,74.9 124.5,73.6Z" style="fill:rgb(86,0,173);fill-rule:nonzero;"/>
            </g>
        </g>
        <g>
            <g transform="matrix(1,0,0,1,0.02,0.02)">
                <path d="M52.2,102.7C54.2,104.1 55.1,103.9 55.1,103.9C55.1,103.9 56,104.1 58,102.7C60,101.3 71.6,87.7 72,87C72.4,86.3 74.2,58.5 70.7,55.6C67.2,52.7 55.1,53 55.1,53C55.1,53 43,52.8 39.5,55.6C36,58.4 37.8,86.3 38.2,87C38.6,87.7 50.2,101.3 52.2,102.7Z" style="fill:rgb(57,0,113);fill-rule:nonzero;"/>
            </g>
            <g transform="matrix(1,0,0,1,0.02,0.02)">
                <path d="M52.2,102.7C54.2,104.1 55.1,103.9 55.1,103.9C55.1,103.9 56,104.1 58,102.7C59.3,101.8 64.6,95.8 68.3,91.5C64.25,89.291 59.713,88.122 55.1,88.1C50.48,88.074 45.932,89.245 41.9,91.5C45.6,95.8 50.9,101.8 52.2,102.7Z" style="fill:rgb(86,0,173);fill-rule:nonzero;"/>
            </g>
        </g>
        <g>
            <g transform="matrix(1,0,0,1,0.02,0.02)">
                <path d="M175.9,55.1C173,51.6 145.2,53.4 144.5,53.8C143.8,54.2 130.2,65.8 128.8,67.8C127.4,69.8 127.6,70.7 127.6,70.7C127.6,70.7 127.4,71.6 128.8,73.6C130.2,75.6 143.8,87.2 144.5,87.6C145.2,88 173,89.8 175.9,86.3C178.8,82.8 178.5,70.7 178.5,70.7C178.5,70.7 178.8,58.6 175.9,55.1Z" style="fill:rgb(57,0,113);fill-rule:nonzero;"/>
            </g>
            <g transform="matrix(1,0,0,1,0.02,0.02)">
                <path d="M140.1,57.6C135.8,61.3 129.8,66.6 128.9,67.9C127.5,69.9 127.7,70.8 127.7,70.8C127.7,70.8 127.5,71.7 128.9,73.7C129.8,75 135.8,80.3 140.1,84C144.629,75.793 144.629,65.807 140.1,57.6Z" style="fill:rgb(86,0,173);fill-rule:nonzero;"/>
            </g>
        </g>
        <g>
            <g transform="matrix(1,0,0,1,0.02,0.02)">
                <path d="M20.6,54.2C18.6,52.8 17.7,53 17.7,53C17.7,53 16.8,52.8 14.8,54.2C12.8,55.6 1.2,69.2 0.8,69.9C0.4,70.6 -1.4,98.4 2.1,101.3C5.6,104.2 17.7,103.9 17.7,103.9C17.7,103.9 29.8,104.2 33.3,101.3C36.8,98.4 35,70.6 34.6,69.9C34.2,69.2 22.6,55.6 20.6,54.2Z" style="fill:rgb(57,0,113);fill-rule:nonzero;"/>
            </g>
            <g transform="matrix(1,0,0,1,0.02,0.02)">
                <path d="M20.6,54.2C18.6,52.8 17.7,53 17.7,53C17.7,53 16.8,52.8 14.8,54.2C13.5,55.1 8.2,61.1 4.5,65.4C8.55,67.609 13.087,68.778 17.7,68.8C22.32,68.826 26.868,67.655 30.9,65.4C27.2,61.1 21.9,55.1 20.6,54.2Z" style="fill:rgb(86,0,173);fill-rule:nonzero;"/>
            </g>
        </g>
    </g>
</svg>
